images/logo.svg

<svg width="184" height="75" viewBox="0 0 184 75" fill="none" xmlns="http://www.w3.org/2000/svg">
<path d="M10.6011 22.4561H16.1137L26.3906 53.1461H20.7993L18.2006 45.4952H8.43549L5.87609 53.1461H0.28479L10.6011 22.4561ZM17.2162 41.3023L13.3574 28.6373L9.34112 41.3023H17.2162Z" fill="white"/>
<path d="M32.3708 22.4561L39.3008 33.7811L46.1915 22.4561H52.0978L42.4115 38.0172L51.7828 53.1461H45.8765L39.3008 42.2533L32.6858 53.1461H26.7401L36.1114 38.0172L26.4251 22.4561H32.3708Z" fill="white"/>
<path d="M54.9126 53.1461V22.4561H60.3464V53.1461H54.9126Z" fill="#EC7979"/>
<path d="M87.0875 27.6863H78.1493V53.1461H72.7549V27.6863H63.8167V22.4561H87.0875V27.6863Z" fill="#EC7979"/>
</svg>

<svg xmlns="http://www.w3.org/2000/svg" width="184" height="75" fill="none"><path fill="#fff" d="M10.601 22.456h5.513l10.277 30.69h-5.592l-2.598-7.65H8.435l-2.559 7.65H.285L10.6 22.456Zm6.615 18.846-3.859-12.665-4.016 12.665h7.875ZM32.37 22.456l6.93 11.325 6.892-11.325h5.906L42.41 38.017l9.372 15.13h-5.907l-6.575-10.894-6.615 10.893H26.74l9.371-15.129-9.686-15.56h5.946Z"/><path fill="#EC7979" d="M54.913 53.146v-30.69h5.433v30.69h-5.433ZM87.088 27.686h-8.939v25.46h-5.394v-25.46h-8.938v-5.23h23.27v5.23Z"/></svg>
